svg/movie_filter_outline.svg

<svg xmlns="http://www.w3.org/2000/svg" viewBox="0 0 24 24"><path d="m10 11-.94 2.06L7 14l2.06.94L10 17l.94-2.06L13 14l-2.06-.94M18 4l2 4h-3l-2-4h-2l2 4h-3l-2-4H8l2 4H7L5 4H4c-1.09 0-2 .9-2 2v12c0 1.1.91 2 2 2h16a2 2 0 0 0 2-2V4zm2 14H4V6.47L5.77 10H16l-.63 1.37L14 12l1.37.63L16 14l.63-1.37L18 12l-1.37-.63L16 10h4z"/></svg>

<?xml version="1.0" encoding="UTF-8"?><!DOCTYPE svg PUBLIC "-//W3C//DTD SVG 1.1//EN" "http://www.w3.org/Graphics/SVG/1.1/DTD/svg11.dtd"><svg xmlns="http://www.w3.org/2000/svg" xmlns:xlink="http://www.w3.org/1999/xlink" version="1.1" id="mdi-movie-filter-outline" width="24" height="24" viewBox="0 0 24 24"><path d="M10 11L9.06 13.06L7 14L9.06 14.94L10 17L10.94 14.94L13 14L10.94 13.06M18 4L20 8H17L15 4H13L15 8H12L10 4H8L10 8H7L5 4H4C2.91 4 2 4.9 2 6L2 18C2 19.1 2.91 20 4 20H20C21.11 20 22 19.1 22 18V4H18M20 18H4V6.47L5.77 10H16L15.37 11.37L14 12L15.37 12.63L16 14L16.63 12.63L18 12L16.63 11.37L16 10H20V18Z" /></svg>
